<?xml version="1.0" encoding="UTF-8"?>
<map version="1.10" tiledversion="1.11.2" orientation="hexagonal" renderorder="right-down" width="9" height="7" tilewidth="120" tileheight="140" infinite="0" hexsidelength="70" staggeraxis="y" staggerindex="odd" nextlayerid="3" nextobjectid="11">
 <tileset firstgid="1" source="../../../../../Downloads/kenney_hexagon-tiles/Spritesheet/hexagonAll_sheet.tsx"/>
 <layer id="1" name="Tile Layer 1" width="9" height="7">
  <data encoding="csv">
0,0,0,0,0,0,0,0,0,
0,0,0,0,0,0,0,0,0,
0,0,0,0,0,0,0,0,0,
0,0,0,0,0,0,0,0,0,
0,0,0,0,0,0,0,0,0,
0,0,0,0,0,0,0,0,0,
0,0,0,0,0,0,0,0,0
</data>
 </layer>
 <objectgroup id="2" name="Crystals">
  <object id="1" gid="36" x="720" y="140" width="120" height="140"/>
  <object id="2" gid="36" x="840" y="140" width="120" height="140"/>
  <object id="3" gid="36" x="120" y="140" width="120" height="140"/>
  <object id="4" gid="36" x="240" y="140" width="120" height="140"/>
  <object id="5" gid="36" x="180" y="665" width="120" height="140"/>
  <object id="6" gid="36" x="300" y="665" width="120" height="140"/>
  <object id="7" gid="36" x="240" y="770" width="120" height="140"/>
  <object id="8" gid="36" x="660" y="665" width="120" height="140"/>
  <object id="9" gid="36" x="780" y="665" width="120" height="140"/>
  <object id="10" gid="36" x="720" y="770" width="120" height="140"/>
 </objectgroup>
</map>
