<?xml version="1.0" encoding="UTF-8"?>
<map version="1.10" tiledversion="1.11.2" orientation="hexagonal" renderorder="right-down" width="12" height="8" tilewidth="120" tileheight="140" infinite="0" hexsidelength="70" staggeraxis="y" staggerindex="odd" nextlayerid="9" nextobjectid="71">
 <tileset firstgid="1" source="../../../../../Downloads/kenney_hexagon-tiles/Spritesheet/hexagonAll_sheet.tsx"/>
 <tileset firstgid="225" source="../../../../../Downloads/kenney_hexagon-tiles/Spritesheet/hexagonBuildings_sheet.tsx"/>
 <layer id="1" name="Tile Layer 1" width="12" height="8">
  <data encoding="csv">
0,0,132,178,178,51,66,66,178,178,51,0,
0,132,132,51,51,51,66,51,51,51,51,0,
0,132,132,51,51,51,51,178,51,51,51,51,
0,51,51,51,51,66,66,51,51,51,51,0,
0,51,51,178,51,51,66,51,51,51,51,51,
0,51,178,51,51,51,51,51,51,178,51,0,
0,0,51,51,51,66,66,51,51,51,51,0,
0,0,51,51,51,66,51,51,51,51,0,0
</data>
 </layer>
 <objectgroup id="2" name="Bases">
  <object id="1" template="Right Base.tx" name="Blue Base" gid="0" x="1320" y="875" rotation="0">
   <polygon points="0,0 -60,-35 -60,-105 -120,-140 -120,-210 -60,-245 -60,-315 0,-350 60,-315 120,-350 180,-315 180,-245 120,-210 120,-140 60,-105 60,-35"/>
  </object>
  <object id="3" template="Left Base.tx" name="Red Base" x="300" y="0"/>
 </objectgroup>
 <objectgroup id="7" name="Spawn Points">
  <object id="60" name="Red Spawn" gid="3" x="360" y="350" width="120" height="140"/>
  <object id="61" name="Blue Spawn" gid="19" x="1140" y="665" width="120" height="140"/>
 </objectgroup>
 <objectgroup id="6" name="Crystals" visible="0">
  <object id="23" gid="36" x="240" y="560" width="120" height="140"/>
  <object id="24" gid="36" x="180" y="665" width="120" height="140"/>
  <object id="25" gid="36" x="240" y="770" width="120" height="140"/>
  <object id="28" gid="36" x="1200" y="140" width="120" height="140"/>
  <object id="29" gid="36" x="1200" y="350" width="120" height="140"/>
  <object id="32" gid="1073741860" x="1260" y="245" width="120" height="140"/>
 </objectgroup>
 <objectgroup id="3" name="Launch Pads">
  <object id="6" name="Top" x="840" y="245" rotation="-180">
   <polygon points="0,0 -60,35 -60,105 -120,140 -120,210 -60,245 0,210 60,245 120,210 120,140 60,105 60,35"/>
  </object>
  <object id="7" name="Middle" x="780" y="560" rotation="-180">
   <polygon points="0,0 -60,35 -60,105 -120,140 -120,210 -60,245 0,210 60,245 120,210 120,140 60,105 60,35"/>
  </object>
  <object id="69" name="Bottom" x="720" y="875" rotation="180">
   <polygon points="0,0 60,35 60,105 120,140 120,210 60,245 0,210 -60,245 -120,210 -120,140 -60,105 -60,35"/>
  </object>
 </objectgroup>
 <objectgroup id="5" name="Obstacles">
  <object id="11" name="Silo" gid="237" x="720" y="350" width="120" height="140"/>
  <object id="70" gid="50" x="660" y="665" width="120" height="140"/>
 </objectgroup>
 <objectgroup id="8" name="Boundaries" visible="0" tintcolor="#000000">
  <object id="65" name="Right Boundary" x="1500" y="770">
   <polygon points="0,0 -60,-35 -60,-105 0,-140 0,-210 60,-245 60,-315 0,-350 0,-420 60,-455 60,-525 0,-560 0,-630 -60,-665 -60,-735 0,-770 60,-735 60,-665 120,-630 120,-560 120,0 60,-35 0,0"/>
  </object>
  <object id="66" name="Left Boundary" x="60" y="350">
   <polygon points="0,0 -60,-35 -60,385 0,420 60,385 60,315 0,280 0,210 -60,175 -60,105 0,70"/>
  </object>
  <object id="67" name="Left Boundary" x="0" y="315">
   <polygon points="0,0 0,-280 60,-315 120,-280 120,-210 60,-175 60,-105 0,-70"/>
  </object>
 </objectgroup>
</map>
