<?xml version="1.0" encoding="UTF-8"?>
<map version="1.10" tiledversion="1.11.2" orientation="hexagonal" renderorder="right-down" width="12" height="7" tilewidth="120" tileheight="140" infinite="0" hexsidelength="70" staggeraxis="y" staggerindex="odd" nextlayerid="9" nextobjectid="91">
 <tileset firstgid="1" source="../../../../../Downloads/kenney_hexagon-tiles/Spritesheet/hexagonAll_sheet.tsx"/>
 <tileset firstgid="225" source="../../../../../Downloads/kenney_hexagon-tiles/Spritesheet/hexagonBuildings_sheet.tsx"/>
 <layer id="1" name="Tile Layer 1" width="12" height="7">
  <data encoding="csv">
0,132,193,193,193,193,193,193,193,193,22,0,
132,132,193,193,193,147,193,193,193,22,22,0,
132,132,193,193,193,147,147,193,193,193,22,22,
193,193,193,81,193,193,193,81,193,193,193,0,
0,193,193,193,147,147,147,147,193,193,193,0,
0,193,193,193,147,193,147,193,193,193,0,0,
0,0,193,193,193,193,193,193,193,193,0,0
</data>
 </layer>
 <objectgroup id="2" name="Bases">
  <object id="3" template="Left Base.tx" name="Red Base" gid="0" x="180" y="0" rotation="0">
   <polygon points="0,0 60,35 60,105 120,140 120,210 60,245 60,315 0,350 -60,315 -120,350 -180,315 -180,245 -120,210 -120,140 -60,105 -60,35"/>
  </object>
  <object id="84" name="Blue Base" x="1320" y="105">
   <polygon points="0,0 0,-70 -60,-105 -120,-70 -120,0 -180,35 -180,105 -120,140 -120,210 -60,245 0,210 60,245 120,210 120,140 60,105 60,35 0,0"/>
  </object>
 </objectgroup>
 <objectgroup id="7" name="Spawn Points">
  <object id="60" name="Red Spawn" gid="3" x="240" y="350" width="120" height="140"/>
  <object id="61" name="Blue Spawn" gid="19" x="1080" y="350" width="120" height="140"/>
 </objectgroup>
 <objectgroup id="6" name="Crystals">
  <object id="28" gid="36" x="900" y="245" width="120" height="140"/>
  <object id="77" gid="36" x="840" y="140" width="120" height="140"/>
  <object id="78" gid="2147483684" x="240" y="560" width="120" height="140"/>
  <object id="79" gid="2147483684" x="480" y="140" width="120" height="140"/>
  <object id="80" gid="3221225508" x="300" y="665" width="120" height="140"/>
  <object id="81" gid="2147483684" x="420" y="245" width="120" height="140"/>
  <object id="89" gid="2147483684" x="1020" y="665" width="120" height="140"/>
  <object id="90" gid="2147483684" x="1080" y="560" width="120" height="140"/>
 </objectgroup>
 <objectgroup id="3" name="Launch Pads">
  <object id="6" name="Left" x="600" y="665" rotation="180">
   <polygon points="0,0 60,35 60,105 120,140 120,210 60,245 0,210 -60,245 -120,210 -120,140 -60,105 -60,35"/>
  </object>
  <object id="69" name="Bottom" x="840" y="665" rotation="180">
   <polygon points="0,0 60,35 60,105 120,140 120,210 60,245 0,210 -60,245 -120,210 -120,140 -60,105 -60,35"/>
  </object>
  <object id="85" name="Right" x="720" y="105" rotation="-180">
   <polygon points="0,0 60,-35 60,-105 120,-140 120,-210 60,-245 0,-210 -60,-245 -120,-210 -120,-140 -60,-105 -60,-35"/>
  </object>
 </objectgroup>
 <objectgroup id="5" name="Obstacles">
  <object id="11" name="Silo" gid="237" x="660" y="665" width="120" height="140"/>
  <object id="73" name="Mountain" gid="50" x="540" y="455" width="120" height="140"/>
  <object id="74" name="Mountain" gid="50" x="780" y="455" width="120" height="140"/>
  <object id="75" name="Mountain" gid="50" x="180" y="665" width="120" height="140"/>
  <object id="76" name="Mountain" gid="50" x="1140" y="665" width="120" height="140"/>
  <object id="87" name="Mountain" gid="50" x="960" y="140" width="120" height="140"/>
  <object id="88" name="Mountain" gid="50" x="360" y="140" width="120" height="140"/>
 </objectgroup>
</map>
